python/sources/Confluent-Kafka/icon.svg

<svg width="48" height="48" xmlns="http://www.w3.org/2000/svg" fill="none">
 <defs>
  <linearGradient y2="0.92308" x2="1" y1="0.07692" x1="1" id="paint0_linear">
   <stop stop-color="#39CDEE"/>
   <stop stop-opacity="0.4" stop-color="#38CCED" offset="1"/>
  </linearGradient>
 </defs>
 <g>
  <title>Layer 1</title>
  <path id="svg_1" fill="#040531" d="m27,8c0,1.10457 -0.8954,2 -2,2c-1.1046,0 -2,-0.89543 -2,-2c0,-1.10457 0.8954,-2 2,-2c1.1046,0 2,0.89543 2,2zm-0.5166,4.7763c2.0371,-0.632 3.5166,-2.5314 3.5166,-4.7763c0,-2.76142 -2.2386,-5 -5,-5c-2.7614,0 -5,2.23858 -5,5c0,2.2449 1.4795,4.1443 3.5166,4.7763c-0.0109,0.073 -0.0166,0.1477 -0.0166,0.2237l0,3.65c-3.4234,0.6949 -6,3.7216 -6,7.35c0,3.6284 2.5766,6.6551 6,7.35l0,3.65c0,0.076 0.0057,0.1507 0.0166,0.2237c-2.0371,0.632 -3.5166,2.5314 -3.5166,4.7763c0,2.7614 2.2386,5 5,5c2.7614,0 5,-2.2386 5,-5c0,-2.2449 -1.4795,-4.1443 -3.5166,-4.7763c0.0109,-0.073 0.0166,-0.1477 0.0166,-0.2237l0,-3.65c1.7193,-0.349 3.225,-1.2861 4.298,-2.5922l4.392,2.7086c-0.0894,0.6503 -0.0514,1.329 0.1333,2.002c0.7309,2.663 3.4821,4.2293 6.145,3.4984c2.663,-0.7308 4.2293,-3.482 3.4984,-6.145c-0.7308,-2.6629 -3.482,-4.2292 -6.145,-3.4984c-0.9304,0.2554 -1.7269,0.7573 -2.3384,1.416l-4.281,-2.6403c0.1938,-0.6661 0.2977,-1.3704 0.2977,-2.0991c0,-0.6814 -0.0909,-1.3416 -0.2612,-1.9692l4.337,-2.3828c0.6016,0.6078 1.3672,1.0693 2.2526,1.3075c2.6666,0.7173 5.4098,-0.863 6.1271,-3.5296c0.7173,-2.6667 -0.863,-5.4099 -3.5296,-6.1272c-2.6667,-0.7172 -5.4099,0.863 -6.1271,3.5297c-0.1954,0.726 -0.2203,1.4578 -0.0994,2.1528l-4.3135,2.37c-1.078,-1.3629 -2.6192,-2.3425 -4.3859,-2.7012l0,-3.65c0,-0.076 -0.0057,-0.1507 -0.0166,-0.2237zm-1.4834,15.7237c2.4853,0 4.5,-2.0147 4.5,-4.5c0,-2.4853 -2.0147,-4.5 -4.5,-4.5c-2.4853,0 -4.5,2.0147 -4.5,4.5c0,2.4853 2.0147,4.5 4.5,4.5zm0,13.5c1.1046,0 2,-0.8954 2,-2c0,-1.1046 -0.8954,-2 -2,-2c-1.1046,0 -2,0.8954 -2,2c0,1.1046 0.8954,2 2,2zm15.6466,-27.8042c1.0667,0.2869 1.6988,1.3842 1.4119,2.4508c-0.2869,1.0667 -1.3842,1.6988 -2.4509,1.4119c-1.0666,-0.2869 -1.6987,-1.3842 -1.4118,-2.4509c0.2869,-1.0666 1.3842,-1.6988 2.4508,-1.4118zm0.0277,19.878c1.0652,-0.2923 1.6917,-1.3928 1.3994,-2.458c-0.2923,-1.0652 -1.3928,-1.6917 -2.458,-1.3994c-1.0652,0.2924 -1.6917,1.3929 -1.3994,2.458c0.2924,1.0652 1.3929,1.6917 2.458,1.3994z" clip-rule="evenodd" fill-rule="evenodd"/>
  <path id="svg_2" fill="url(#paint0_linear)" d="m10,24c0,-5.1542 3.7568,-9 8,-9l0,-4c-6.8025,0 -12,6.0039 -12,13c0,6.9961 5.1975,13 12,13l0,-4c-4.2432,0 -8,-3.8458 -8,-9z" clip-rule="evenodd" fill-rule="evenodd"/>
 </g>
</svg>

<svg width="48" height="48" viewBox="0 0 48 48" fill="none" xmlns="http://www.w3.org/2000/svg">
<path fill-rule="evenodd" clip-rule="evenodd" d="M27 8C27 9.10457 26.1046 10 25 10C23.8954 10 23 9.10457 23 8C23 6.89543 23.8954 6 25 6C26.1046 6 27 6.89543 27 8ZM26.4834 12.7763C28.5205 12.1443 30 10.2449 30 8C30 5.23858 27.7614 3 25 3C22.2386 3 20 5.23858 20 8C20 10.2449 21.4795 12.1443 23.5166 12.7763C23.5057 12.8493 23.5 12.924 23.5 13V16.65C20.0766 17.3449 17.5 20.3716 17.5 24C17.5 27.6284 20.0766 30.6551 23.5 31.35V35C23.5 35.076 23.5057 35.1507 23.5166 35.2237C21.4795 35.8557 20 37.7551 20 40C20 42.7614 22.2386 45 25 45C27.7614 45 30 42.7614 30 40C30 37.7551 28.5205 35.8557 26.4834 35.2237C26.4943 35.1507 26.5 35.076 26.5 35V31.35C28.2193 31.001 29.725 30.0639 30.798 28.7578L35.19 31.4664C35.1006 32.1167 35.1386 32.7954 35.3233 33.4684C36.0542 36.1314 38.8054 37.6977 41.4683 36.9668C44.1313 36.236 45.6976 33.4848 44.9667 30.8218C44.2359 28.1589 41.4847 26.5926 38.8217 27.3234C37.8913 27.5788 37.0948 28.0807 36.4833 28.7394L32.2023 26.0991C32.3961 25.433 32.5 24.7287 32.5 24C32.5 23.3186 32.4091 22.6584 32.2388 22.0308L36.5758 19.648C37.1774 20.2558 37.943 20.7173 38.8284 20.9555C41.495 21.6728 44.2382 20.0925 44.9555 17.4259C45.6728 14.7592 44.0925 12.016 41.4259 11.2987C38.7592 10.5815 36.016 12.1617 35.2988 14.8284C35.1034 15.5544 35.0785 16.2862 35.1994 16.9812L30.8859 19.3512C29.8079 17.9883 28.2667 17.0087 26.5 16.65V13C26.5 12.924 26.4943 12.8493 26.4834 12.7763ZM25 28.5C27.4853 28.5 29.5 26.4853 29.5 24C29.5 21.5147 27.4853 19.5 25 19.5C22.5147 19.5 20.5 21.5147 20.5 24C20.5 26.4853 22.5147 28.5 25 28.5ZM25 42C26.1046 42 27 41.1046 27 40C27 38.8954 26.1046 38 25 38C23.8954 38 23 38.8954 23 40C23 41.1046 23.8954 42 25 42ZM40.6466 14.1958C41.7133 14.4827 42.3454 15.58 42.0585 16.6466C41.7716 17.7133 40.6743 18.3454 39.6076 18.0585C38.541 17.7716 37.9089 16.6743 38.1958 15.6076C38.4827 14.541 39.58 13.9088 40.6466 14.1958ZM40.6743 34.0738C41.7395 33.7815 42.366 32.681 42.0737 31.6158C41.7814 30.5506 40.6809 29.9241 39.6157 30.2164C38.5505 30.5088 37.924 31.6093 38.2163 32.6744C38.5087 33.7396 39.6092 34.3661 40.6743 34.0738Z" fill="#040531"/>
<path fill-rule="evenodd" clip-rule="evenodd" d="M10 24C10 18.8458 13.7568 15 18 15L18 11C11.1975 11 6 17.0039 6 24C6 30.9961 11.1975 37 18 37L18 33C13.7568 33 10 29.1542 10 24Z" fill="url(#paint0_linear)"/>
<defs>
<linearGradient id="paint0_linear" x1="18" y1="13" x2="18" y2="35" gradientUnits="userSpaceOnUse">
<stop stop-color="#39CDEE"/>
<stop offset="1" stop-color="#38CCED" stop-opacity="0.4"/>
</linearGradient>
</defs>
</svg>
